dist/landing-a/assets/images/mail.svg

<svg width="16" height="12" viewBox="0 0 16 12" fill="none" xmlns="http://www.w3.org/2000/svg">
<path d="M1.25 3L7.16795 6.9453C7.6718 7.2812 8.3282 7.2812 8.83205 6.9453L14.75 3M2.75 11.25H13.25C14.0784 11.25 14.75 10.5784 14.75 9.75V2.25C14.75 1.42157 14.0784 0.75 13.25 0.75H2.75C1.92157 0.75 1.25 1.42157 1.25 2.25V9.75C1.25 10.5784 1.92157 11.25 2.75 11.25Z" stroke="#D6D6D6" stroke-linecap="round" stroke-linejoin="round"/>
</svg>

<svg width="16" height="12" fill="none" xmlns="http://www.w3.org/2000/svg"><path d="M1.25 3l5.918 3.945a1.5 1.5 0 001.664 0L14.75 3m-12 8.25h10.5a1.5 1.5 0 001.5-1.5v-7.5a1.5 1.5 0 00-1.5-1.5H2.75a1.5 1.5 0 00-1.5 1.5v7.5a1.5 1.5 0 001.5 1.5z" stroke="#D6D6D6" stroke-linecap="round" stroke-linejoin="round"/></svg>
